X: 112
T: 2 La Nouvelle Charte
T: la Nouvelle Charte
B: Robert Landrin "Potpourri fran\,cois des contre-danse ancienne tel quil se danse chez la Reine ..." 1760 p.11 #2 dance 04 #2
S: http://memory.loc.gov/cgi-bin/query/D?musdibib:2:./temp/~ammem_EbRS:
Z: 2014 John Chambers <jc:trillian.mit.edu>
M: 2/2
L: 1/8
K: D
% - - - - - - - - - - - - - - - - - - - - - - - - -
D2A2 |\
A2GF G2B2 | B2A2 A2d2 |\
d2cB AGFE | F2D2 D2A2 |\
A2GF G2B2 | B2A2 A2d2 |
d2cB AGFE | D4 :: E2G2 |\
F2ED C2D2 | E2A,2 E2G2 |\
F2ED F2!+!E2 | D4 :: "1f"DCDE |\
DCDE FEFG |
A4 BABc |\
d2d2 fefg | a2a2 DCDE |\
DCDE FEFG | A4 BABc |\
dfed !+!c2B2 | A4 :: "2f"efgf |
efgf efge | !+!f2d2 EFGF |\
EFGF EFGE | F2D2 DCDE |\
DCDE FEFG | AGAB cdec |\
Aege e2!+!c2 | d4 :|
% - - - - - - - - - - - - - - - - - - - - - - - - -

%%sep 1 1 500
%%sep 1 1 500
